dist/assets/multi_user.svg

<svg width="31" height="30" viewBox="0 0 31 30" fill="none" xmlns="http://www.w3.org/2000/svg">
<rect x="0.68042" y="0.5" width="29" height="29" rx="14.5" fill="#6548EE"/>
<path d="M7.56146 20.5V10.3182H9.71416V18.7251H14.0792V20.5H7.56146ZM15.5048 20.5V10.3182H19.5219C20.2941 10.3182 20.952 10.4657 21.4956 10.7607C22.0391 11.0523 22.4534 11.4583 22.7385 11.9787C23.0268 12.4957 23.171 13.0923 23.171 13.7685C23.171 14.4446 23.0252 15.0412 22.7335 15.5582C22.4418 16.0753 22.0193 16.478 21.4658 16.7663C20.9156 17.0547 20.2494 17.1989 19.4672 17.1989H16.9068V15.4737H19.1192C19.5335 15.4737 19.8748 15.4025 20.1433 15.2599C20.4151 15.1141 20.6173 14.9136 20.7498 14.6584C20.8857 14.3999 20.9537 14.1032 20.9537 13.7685C20.9537 13.4304 20.8857 13.1354 20.7498 12.8835C20.6173 12.6283 20.4151 12.4311 20.1433 12.2919C19.8715 12.1494 19.5268 12.0781 19.1092 12.0781H17.6575V20.5H15.5048Z" fill="white"/>
<rect x="0.68042" y="0.5" width="29" height="29" rx="14.5" stroke="white"/>
</svg>

<svg xmlns="http://www.w3.org/2000/svg" width="31" height="30" fill="none"><rect width="29" height="29" x=".68" y=".5" fill="#6548EE" rx="14.5"/><path fill="#fff" d="M7.561 20.5V10.318h2.153v8.407h4.365V20.5H7.561Zm7.944 0V10.318h4.017c.772 0 1.43.148 1.974.443.543.291.957.697 1.242 1.218.289.517.433 1.113.433 1.79 0 .676-.146 1.272-.438 1.79-.291.516-.714.919-1.267 1.207-.55.289-1.217.433-1.999.433h-2.56v-1.725h2.212c.415 0 .756-.072 1.024-.214.272-.146.474-.346.607-.602.136-.258.204-.555.204-.89 0-.338-.068-.633-.204-.885a1.36 1.36 0 0 0-.607-.591c-.271-.143-.616-.214-1.034-.214h-1.452V20.5h-2.152Z"/><rect width="29" height="29" x=".68" y=".5" stroke="#fff" rx="14.5"/></svg>
